X:890
T: Devaney's Goat
T: Gabhar an Dubh\'anaigh
S: B.Breathnach: "Ceol Rince na hEireann" II/267
Z: B.Black
L: 1/8
M: 4/4
R: reel
K: D
FE|DF F2 AFAB|dffe dBAF|DF F2 BFAF|E2 ED EGFE|
DF F2 AFAB|dffe dBAd|fedB AFDF|1 AFEF D2 :|2 AFEF D3 ||
A|faaf afdf|afef dB B2|ABde fAdf|e2 ef edBd|
Ad d2 fd d2|edfd edBd|A2 dB AFDF|AFEF D3 :|
